X:25
T:Fifine
R:Polka
C:Trad.
O:France
A:Centre
S:80 airs  danser du centre France - La Chavanne - 1991
S:62
Z:Transcrit et/ou corrig par Michel BELLON - 2005-05-21
Z:Pour toute observation mailto:galouvielle@free.fr
M:2/4
L:1/8
K:G
F/G/A/B/ c/B/c/d/ | cB BG | F/G/A/B/ c/B/c/d/ | B3G | F/G/A/B/ c/B/c/d/ |
cB BG | AA/B/ A/G/F/E/ |1 D3G :|2 D3F/G/ |: [K:D] AA/d/ BB/d/ | AF/F/ F/D/F/G/ |
AA/d/ BB/d/ | A3F/G/ | AA/d/ BB/d/ | AF Fd |1 c/d/c/B/ A/B/A/G/ | F/G/F/E/ DF/G/ :|2 c/d/c/B/ AB/c/ | d4 |]
%%footer $D   Galouvielle-MBe 2006 \nPolka (France)
